images/3233001.svg

<?xml version="1.0" encoding="UTF-8"?>
<svg xmlns="http://www.w3.org/2000/svg" xmlns:xlink="http://www.w3.org/1999/xlink" width="300pt" height="300pt" viewBox="0 0 300 300" version="1.1">
<defs>
<g>
<symbol overflow="visible" id="glyph0-0">
<path style="stroke:none;" d="M 0.453125 1.59375 L 0.453125 -6.34375 L 4.953125 -6.34375 L 4.953125 1.59375 Z M 0.953125 1.09375 L 4.453125 1.09375 L 4.453125 -5.84375 L 0.953125 -5.84375 Z M 0.953125 1.09375 "/>
</symbol>
<symbol overflow="visible" id="glyph0-1">
<path style="stroke:none;" d="M 3.546875 -5.953125 C 2.898438 -5.953125 2.382812 -5.710938 2 -5.234375 C 1.625 -4.753906 1.4375 -4.101562 1.4375 -3.28125 C 1.4375 -2.445312 1.625 -1.789062 2 -1.3125 C 2.382812 -0.832031 2.898438 -0.59375 3.546875 -0.59375 C 4.191406 -0.59375 4.703125 -0.832031 5.078125 -1.3125 C 5.453125 -1.789062 5.640625 -2.445312 5.640625 -3.28125 C 5.640625 -4.101562 5.453125 -4.753906 5.078125 -5.234375 C 4.703125 -5.710938 4.191406 -5.953125 3.546875 -5.953125 Z M 3.546875 -6.6875 C 4.460938 -6.6875 5.195312 -6.375 5.75 -5.75 C 6.300781 -5.132812 6.578125 -4.3125 6.578125 -3.28125 C 6.578125 -2.238281 6.300781 -1.410156 5.75 -0.796875 C 5.195312 -0.179688 4.460938 0.125 3.546875 0.125 C 2.617188 0.125 1.878906 -0.179688 1.328125 -0.796875 C 0.773438 -1.410156 0.5 -2.238281 0.5 -3.28125 C 0.5 -4.3125 0.773438 -5.132812 1.328125 -5.75 C 1.878906 -6.375 2.617188 -6.6875 3.546875 -6.6875 Z M 3.546875 -6.6875 "/>
</symbol>
<symbol overflow="visible" id="glyph0-2">
<path style="stroke:none;" d="M 0.890625 -6.5625 L 2.078125 -6.5625 L 4.984375 -1.078125 L 4.984375 -6.5625 L 5.84375 -6.5625 L 5.84375 0 L 4.65625 0 L 1.75 -5.484375 L 1.75 0 L 0.890625 0 Z M 0.890625 -6.5625 "/>
</symbol>
<symbol overflow="visible" id="glyph0-3">
<path style="stroke:none;" d="M 0.890625 -6.5625 L 1.765625 -6.5625 L 1.765625 -3.875 L 5 -3.875 L 5 -6.5625 L 5.890625 -6.5625 L 5.890625 0 L 5 0 L 5 -3.125 L 1.765625 -3.125 L 1.765625 0 L 0.890625 0 Z M 0.890625 -6.5625 "/>
</symbol>
</g>
</defs>
<g id="surface42157">
<rect x="0" y="0" width="300" height="300" style="fill:rgb(100%,100%,100%);fill-opacity:1;stroke:none;"/>
<path style="fill:none;stroke-width:1.2;stroke-linecap:butt;stroke-linejoin:miter;stroke:rgb(0%,0%,0%);stroke-opacity:1;stroke-miterlimit:10;" d="M 35.25 139.21875 L 41.5 146.355469 "/>
<path style="fill:none;stroke-width:1.2;stroke-linecap:butt;stroke-linejoin:miter;stroke:rgb(100%,0%,0%);stroke-opacity:1;stroke-miterlimit:10;" d="M 41.5 146.355469 L 47.746094 153.496094 "/>
<path style="fill:none;stroke-width:1.2;stroke-linecap:butt;stroke-linejoin:miter;stroke:rgb(100%,0%,0%);stroke-opacity:1;stroke-miterlimit:10;" d="M 47.746094 153.496094 L 57.054688 151.652344 "/>
<path style="fill:none;stroke-width:1.2;stroke-linecap:butt;stroke-linejoin:miter;stroke:rgb(0%,0%,0%);stroke-opacity:1;stroke-miterlimit:10;" d="M 57.054688 151.652344 L 66.359375 149.808594 "/>
<path style=" stroke:none;fill-rule:nonzero;fill:rgb(100%,100%,100%);fill-opacity:1;" d="M 43.746094 147.996094 L 51.746094 147.996094 L 51.746094 158.996094 L 43.746094 158.996094 Z M 43.746094 147.996094 "/>
<g style="fill:rgb(100%,0%,0%);fill-opacity:1;">
  <use xlink:href="#glyph0-1" x="43.746094" y="156.65918"/>
</g>
<path style="fill:none;stroke-width:1.2;stroke-linecap:butt;stroke-linejoin:miter;stroke:rgb(0%,0%,0%);stroke-opacity:1;stroke-miterlimit:10;" d="M 66.359375 149.808594 L 72.472656 131.847656 "/>
<path style="fill:none;stroke-width:1.2;stroke-linecap:butt;stroke-linejoin:miter;stroke:rgb(0%,0%,0%);stroke-opacity:1;stroke-miterlimit:10;" d="M 71.199219 149.453125 L 76.089844 135.082031 "/>
<path style="fill:none;stroke-width:1.2;stroke-linecap:butt;stroke-linejoin:miter;stroke:rgb(0%,0%,0%);stroke-opacity:1;stroke-miterlimit:10;" d="M 78.859375 164.085938 L 66.359375 149.808594 "/>
<path style="fill:none;stroke-width:1.2;stroke-linecap:butt;stroke-linejoin:miter;stroke:rgb(0%,0%,0%);stroke-opacity:1;stroke-miterlimit:10;" d="M 72.472656 131.847656 L 91.085938 128.164062 "/>
<path style="fill:none;stroke-width:1.2;stroke-linecap:butt;stroke-linejoin:miter;stroke:rgb(0%,0%,0%);stroke-opacity:1;stroke-miterlimit:10;" d="M 91.085938 128.164062 L 103.585938 142.4375 "/>
<path style="fill:none;stroke-width:1.2;stroke-linecap:butt;stroke-linejoin:miter;stroke:rgb(0%,0%,0%);stroke-opacity:1;stroke-miterlimit:10;" d="M 88.976562 132.53125 L 98.976562 143.953125 "/>
<path style="fill:none;stroke-width:1.2;stroke-linecap:butt;stroke-linejoin:miter;stroke:rgb(0%,0%,0%);stroke-opacity:1;stroke-miterlimit:10;" d="M 103.585938 142.4375 L 97.46875 160.398438 "/>
<path style="fill:none;stroke-width:1.2;stroke-linecap:butt;stroke-linejoin:miter;stroke:rgb(0%,0%,0%);stroke-opacity:1;stroke-miterlimit:10;" d="M 103.585938 142.4375 L 112.890625 140.597656 "/>
<path style="fill:none;stroke-width:1.2;stroke-linecap:butt;stroke-linejoin:miter;stroke:rgb(0%,0%,100%);stroke-opacity:1;stroke-miterlimit:10;" d="M 112.890625 140.597656 L 122.195312 138.753906 "/>
<path style="fill:none;stroke-width:1.2;stroke-linecap:butt;stroke-linejoin:miter;stroke:rgb(0%,0%,0%);stroke-opacity:1;stroke-miterlimit:10;" d="M 97.46875 160.398438 L 78.859375 164.085938 "/>
<path style="fill:none;stroke-width:1.2;stroke-linecap:butt;stroke-linejoin:miter;stroke:rgb(0%,0%,0%);stroke-opacity:1;stroke-miterlimit:10;" d="M 94.742188 156.390625 L 79.851562 159.335938 "/>
<path style="fill:none;stroke-width:1.2;stroke-linecap:butt;stroke-linejoin:miter;stroke:rgb(0%,0%,100%);stroke-opacity:1;stroke-miterlimit:10;" d="M 122.195312 138.753906 L 128.445312 145.890625 "/>
<path style="fill:none;stroke-width:1.2;stroke-linecap:butt;stroke-linejoin:miter;stroke:rgb(0%,0%,0%);stroke-opacity:1;stroke-miterlimit:10;" d="M 128.445312 145.890625 L 134.695312 153.027344 "/>
<path style=" stroke:none;fill-rule:nonzero;fill:rgb(100%,100%,100%);fill-opacity:1;" d="M 115.195312 133.253906 L 129.195312 133.253906 L 129.195312 144.253906 L 115.195312 144.253906 Z M 115.195312 133.253906 "/>
<g style="fill:rgb(0%,0%,100%);fill-opacity:1;">
  <use xlink:href="#glyph0-2" x="115.195312" y="141.916992"/>
  <use xlink:href="#glyph0-3" x="122.172852" y="141.916992"/>
</g>
<path style="fill:none;stroke-width:1.2;stroke-linecap:butt;stroke-linejoin:miter;stroke:rgb(0%,0%,0%);stroke-opacity:1;stroke-miterlimit:10;" d="M 132.582031 152.308594 L 129.523438 161.289062 "/>
<path style="fill:none;stroke-width:1.2;stroke-linecap:butt;stroke-linejoin:miter;stroke:rgb(100%,0%,0%);stroke-opacity:1;stroke-miterlimit:10;" d="M 129.523438 161.289062 L 126.464844 170.269531 "/>
<path style="fill:none;stroke-width:1.2;stroke-linecap:butt;stroke-linejoin:miter;stroke:rgb(0%,0%,0%);stroke-opacity:1;stroke-miterlimit:10;" d="M 136.808594 153.75 L 133.75 162.730469 "/>
<path style="fill:none;stroke-width:1.2;stroke-linecap:butt;stroke-linejoin:miter;stroke:rgb(100%,0%,0%);stroke-opacity:1;stroke-miterlimit:10;" d="M 133.75 162.730469 L 130.691406 171.710938 "/>
<path style="fill:none;stroke-width:1.2;stroke-linecap:butt;stroke-linejoin:miter;stroke:rgb(0%,0%,0%);stroke-opacity:1;stroke-miterlimit:10;" d="M 134.695312 153.027344 L 144 151.1875 "/>
<path style="fill:none;stroke-width:1.2;stroke-linecap:butt;stroke-linejoin:miter;stroke:rgb(0%,0%,100%);stroke-opacity:1;stroke-miterlimit:10;" d="M 144 151.1875 L 153.304688 149.34375 "/>
<path style=" stroke:none;fill-rule:nonzero;fill:rgb(100%,100%,100%);fill-opacity:1;" d="M 120.578125 165.492188 L 128.578125 165.492188 L 128.578125 176.492188 L 120.578125 176.492188 Z M 120.578125 165.492188 "/>
<g style="fill:rgb(100%,0%,0%);fill-opacity:1;">
  <use xlink:href="#glyph0-1" x="120.578125" y="174.155273"/>
</g>
<path style="fill:none;stroke-width:1.2;stroke-linecap:butt;stroke-linejoin:miter;stroke:rgb(0%,0%,100%);stroke-opacity:1;stroke-miterlimit:10;" d="M 153.304688 149.34375 L 157.285156 140.730469 "/>
<path style="fill:none;stroke-width:1.2;stroke-linecap:butt;stroke-linejoin:miter;stroke:rgb(0%,0%,0%);stroke-opacity:1;stroke-miterlimit:10;" d="M 157.285156 140.730469 L 161.265625 132.121094 "/>
<path style="fill:none;stroke-width:1.2;stroke-linecap:butt;stroke-linejoin:miter;stroke:rgb(0%,0%,0%);stroke-opacity:1;stroke-miterlimit:10;" d="M 167.226562 162.234375 L 160.265625 155.789062 "/>
<path style="fill:none;stroke-width:1.2;stroke-linecap:butt;stroke-linejoin:miter;stroke:rgb(0%,0%,100%);stroke-opacity:1;stroke-miterlimit:10;" d="M 160.265625 155.789062 L 153.304688 149.34375 "/>
<path style=" stroke:none;fill-rule:nonzero;fill:rgb(100%,100%,100%);fill-opacity:1;" d="M 150.304688 143.84375 L 157.304688 143.84375 L 157.304688 154.84375 L 150.304688 154.84375 Z M 150.304688 143.84375 "/>
<g style="fill:rgb(0%,0%,100%);fill-opacity:1;">
  <use xlink:href="#glyph0-2" x="150.304688" y="152.506836"/>
</g>
<path style="fill:none;stroke-width:1.2;stroke-linecap:butt;stroke-linejoin:miter;stroke:rgb(0%,0%,0%);stroke-opacity:1;stroke-miterlimit:10;" d="M 161.265625 132.121094 L 180.105469 134.367188 "/>
<path style=" stroke:none;fill-rule:nonzero;fill:rgb(0%,0%,0%);fill-opacity:1;" d="M 183.789062 152.980469 L 183.390625 133.714844 L 176.820312 135.015625 Z M 183.789062 152.980469 "/>
<path style="fill:none;stroke-width:1.2;stroke-linecap:butt;stroke-linejoin:miter;stroke:rgb(0%,0%,0%);stroke-opacity:1;stroke-miterlimit:10;" d="M 183.789062 152.980469 L 167.226562 162.234375 "/>
<path style="fill:none;stroke-width:1.2;stroke-linecap:butt;stroke-linejoin:miter;stroke:rgb(0%,0%,0%);stroke-opacity:1;stroke-miterlimit:10;" d="M 183.789062 152.980469 L 185.511719 171.875 "/>
<path style="fill:none;stroke-width:1.2;stroke-linecap:butt;stroke-linejoin:miter;stroke:rgb(0%,0%,0%);stroke-opacity:1;stroke-miterlimit:10;" d="M 199.292969 142.042969 L 183.789062 152.980469 "/>
<path style="fill:none;stroke-width:1.2;stroke-linecap:butt;stroke-linejoin:miter;stroke:rgb(0%,0%,0%);stroke-opacity:1;stroke-miterlimit:10;" d="M 185.511719 171.875 L 202.734375 179.832031 "/>
<path style="fill:none;stroke-width:1.2;stroke-linecap:butt;stroke-linejoin:miter;stroke:rgb(0%,0%,0%);stroke-opacity:1;stroke-miterlimit:10;" d="M 202.734375 179.832031 L 218.238281 168.894531 "/>
<path style="fill:none;stroke-width:1.2;stroke-linecap:butt;stroke-linejoin:miter;stroke:rgb(0%,0%,0%);stroke-opacity:1;stroke-miterlimit:10;" d="M 218.238281 168.894531 L 217.378906 159.449219 "/>
<path style="fill:none;stroke-width:1.2;stroke-linecap:butt;stroke-linejoin:miter;stroke:rgb(0%,0%,100%);stroke-opacity:1;stroke-miterlimit:10;" d="M 217.378906 159.449219 L 216.519531 150 "/>
<path style="fill:none;stroke-width:1.2;stroke-linecap:butt;stroke-linejoin:miter;stroke:rgb(0%,0%,100%);stroke-opacity:1;stroke-miterlimit:10;" d="M 216.519531 150 L 207.90625 146.019531 "/>
<path style="fill:none;stroke-width:1.2;stroke-linecap:butt;stroke-linejoin:miter;stroke:rgb(0%,0%,0%);stroke-opacity:1;stroke-miterlimit:10;" d="M 207.90625 146.019531 L 199.292969 142.042969 "/>
<path style="fill:none;stroke-width:1.2;stroke-linecap:butt;stroke-linejoin:miter;stroke:rgb(0%,0%,100%);stroke-opacity:1;stroke-miterlimit:10;" d="M 216.519531 150 L 224.269531 144.53125 "/>
<path style="fill:none;stroke-width:1.2;stroke-linecap:butt;stroke-linejoin:miter;stroke:rgb(0%,0%,0%);stroke-opacity:1;stroke-miterlimit:10;" d="M 224.269531 144.53125 L 232.023438 139.0625 "/>
<path style=" stroke:none;fill-rule:nonzero;fill:rgb(100%,100%,100%);fill-opacity:1;" d="M 213.519531 144.5 L 220.519531 144.5 L 220.519531 155.5 L 213.519531 155.5 Z M 213.519531 144.5 "/>
<g style="fill:rgb(0%,0%,100%);fill-opacity:1;">
  <use xlink:href="#glyph0-2" x="213.519531" y="153.163086"/>
</g>
<path style="fill:none;stroke-width:1.2;stroke-linecap:butt;stroke-linejoin:miter;stroke:rgb(0%,0%,0%);stroke-opacity:1;stroke-miterlimit:10;" d="M 234.246094 138.859375 L 233.386719 129.414062 "/>
<path style="fill:none;stroke-width:1.2;stroke-linecap:butt;stroke-linejoin:miter;stroke:rgb(100%,0%,0%);stroke-opacity:1;stroke-miterlimit:10;" d="M 233.386719 129.414062 L 232.527344 119.964844 "/>
<path style="fill:none;stroke-width:1.2;stroke-linecap:butt;stroke-linejoin:miter;stroke:rgb(0%,0%,0%);stroke-opacity:1;stroke-miterlimit:10;" d="M 229.800781 139.265625 L 228.9375 129.816406 "/>
<path style="fill:none;stroke-width:1.2;stroke-linecap:butt;stroke-linejoin:miter;stroke:rgb(100%,0%,0%);stroke-opacity:1;stroke-miterlimit:10;" d="M 228.9375 129.816406 L 228.078125 120.371094 "/>
<path style="fill:none;stroke-width:1.2;stroke-linecap:butt;stroke-linejoin:miter;stroke:rgb(0%,0%,0%);stroke-opacity:1;stroke-miterlimit:10;" d="M 232.023438 139.0625 L 240.632812 143.042969 "/>
<path style="fill:none;stroke-width:1.2;stroke-linecap:butt;stroke-linejoin:miter;stroke:rgb(100%,0%,0%);stroke-opacity:1;stroke-miterlimit:10;" d="M 240.632812 143.042969 L 249.246094 147.019531 "/>
<path style=" stroke:none;fill-rule:nonzero;fill:rgb(100%,100%,100%);fill-opacity:1;" d="M 226.300781 114.667969 L 234.300781 114.667969 L 234.300781 125.667969 L 226.300781 125.667969 Z M 226.300781 114.667969 "/>
<g style="fill:rgb(100%,0%,0%);fill-opacity:1;">
  <use xlink:href="#glyph0-1" x="226.300781" y="123.331055"/>
</g>
<path style="fill:none;stroke-width:1.2;stroke-linecap:butt;stroke-linejoin:miter;stroke:rgb(100%,0%,0%);stroke-opacity:1;stroke-miterlimit:10;" d="M 249.246094 147.019531 L 256.996094 141.554688 "/>
<path style="fill:none;stroke-width:1.2;stroke-linecap:butt;stroke-linejoin:miter;stroke:rgb(0%,0%,0%);stroke-opacity:1;stroke-miterlimit:10;" d="M 256.996094 141.554688 L 264.75 136.085938 "/>
<path style=" stroke:none;fill-rule:nonzero;fill:rgb(100%,100%,100%);fill-opacity:1;" d="M 245.246094 141.519531 L 253.246094 141.519531 L 253.246094 152.519531 L 245.246094 152.519531 Z M 245.246094 141.519531 "/>
<g style="fill:rgb(100%,0%,0%);fill-opacity:1;">
  <use xlink:href="#glyph0-1" x="245.246094" y="150.182617"/>
</g>
</g>
</svg>

<svg xmlns="http://www.w3.org/2000/svg" xmlns:xlink="http://www.w3.org/1999/xlink" width="300pt" height="300pt" viewBox="0 0 300 300"><defs><symbol overflow="visible"><path d="M.453 1.594v-7.938h4.5v7.938zm.5-.5h3.5v-6.938h-3.5zm0 0"/></symbol><symbol overflow="visible" id="a"><path d="M3.547-5.953c-.65 0-1.164.242-1.547.72-.375.48-.563 1.13-.563 1.952 0 .835.188 1.49.563 1.967.383.48.898.72 1.547.72.644 0 1.156-.24 1.53-.72.376-.476.564-1.132.564-1.968 0-.822-.187-1.474-.562-1.954-.375-.477-.887-.72-1.53-.72zm0-.734c.914 0 1.648.312 2.203.937.55.617.828 1.438.828 2.47 0 1.042-.277 1.87-.828 2.483-.555.617-1.29.922-2.203.922-.93 0-1.668-.305-2.22-.922C.774-1.41.5-2.237.5-3.28c0-1.033.273-1.853.828-2.47.55-.625 1.29-.938 2.22-.938zm0 0"/></symbol><symbol overflow="visible" id="b"><path d="M.89-6.563H2.08l2.906 5.485v-5.484h.86V0H4.656L1.75-5.484V0H.89zm0 0"/></symbol><symbol overflow="visible" id="c"><path d="M.89-6.563h.876v2.688H5v-2.688h.89V0H5v-3.125H1.766V0H.89zm0 0"/></symbol></defs><g><path fill="#fff" d="M0 0h300v300H0z"/><path d="M35.25 139.22l6.25 7.135" stroke-width="1.2" stroke="#000" stroke-miterlimit="10" fill="none"/><path d="M41.5 146.355l6.246 7.14M47.746 153.496l9.31-1.844" stroke-width="1.2" stroke="#f00" stroke-miterlimit="10" fill="none"/><path d="M57.055 151.652l9.304-1.843" stroke-width="1.2" stroke="#000" stroke-miterlimit="10" fill="none"/><path d="M43.746 147.996h8v11h-8zm0 0" fill="#fff"/><use xlink:href="#a" x="43.746" y="156.659" fill="#f00"/><path d="M66.36 149.81l6.113-17.962M71.2 149.453l4.89-14.37M78.86 164.086l-12.5-14.277M72.473 131.848l18.613-3.684M91.086 128.164l12.5 14.274M88.977 132.53l10 11.423M103.586 142.438l-6.117 17.96M103.586 142.438l9.305-1.84" stroke-width="1.2" stroke="#000" stroke-miterlimit="10" fill="none"/><path d="M112.89 140.598l9.305-1.844" stroke-width="1.2" stroke="#00f" stroke-miterlimit="10" fill="none"/><path d="M97.47 160.398l-18.61 3.688M94.742 156.39l-14.89 2.946" stroke-width="1.2" stroke="#000" stroke-miterlimit="10" fill="none"/><path d="M122.195 138.754l6.25 7.137" stroke-width="1.2" stroke="#00f" stroke-miterlimit="10" fill="none"/><path d="M128.445 145.89l6.25 7.137" stroke-width="1.2" stroke="#000" stroke-miterlimit="10" fill="none"/><path d="M115.195 133.254h14v11h-14zm0 0" fill="#fff"/><g fill="#00f"><use xlink:href="#b" x="115.195" y="141.917"/><use xlink:href="#c" x="122.173" y="141.917"/></g><path d="M132.582 152.31l-3.06 8.98" stroke-width="1.2" stroke="#000" stroke-miterlimit="10" fill="none"/><path d="M129.523 161.29l-3.058 8.98" stroke-width="1.2" stroke="#f00" stroke-miterlimit="10" fill="none"/><path d="M136.81 153.75l-3.06 8.98" stroke-width="1.2" stroke="#000" stroke-miterlimit="10" fill="none"/><path d="M133.75 162.73l-3.06 8.98" stroke-width="1.2" stroke="#f00" stroke-miterlimit="10" fill="none"/><path d="M134.695 153.027l9.305-1.84" stroke-width="1.2" stroke="#000" stroke-miterlimit="10" fill="none"/><path d="M144 151.188l9.305-1.844" stroke-width="1.2" stroke="#00f" stroke-miterlimit="10" fill="none"/><path d="M120.578 165.492h8v11h-8zm0 0" fill="#fff"/><use xlink:href="#a" x="120.578" y="174.155" fill="#f00"/><path d="M153.305 149.344l3.98-8.614" stroke-width="1.2" stroke="#00f" stroke-miterlimit="10" fill="none"/><path d="M157.285 140.73l3.98-8.61M167.227 162.234l-6.96-6.445" stroke-width="1.2" stroke="#000" stroke-miterlimit="10" fill="none"/><path d="M160.266 155.79l-6.96-6.446" stroke-width="1.2" stroke="#00f" stroke-miterlimit="10" fill="none"/><path d="M150.305 143.844h7v11h-7zm0 0" fill="#fff"/><use xlink:href="#b" x="150.305" y="152.507" fill="#00f"/><path d="M161.266 132.12l18.84 2.247" stroke-width="1.2" stroke="#000" stroke-miterlimit="10" fill="none"/><path d="M183.79 152.98l-.4-19.265-6.57 1.3zm0 0"/><path d="M183.79 152.98l-16.563 9.254M183.79 152.98l1.722 18.895M199.293 142.043L183.79 152.98M185.512 171.875l17.222 7.957M202.734 179.832l15.504-10.937M218.238 168.895l-.86-9.446" stroke-width="1.2" stroke="#000" stroke-miterlimit="10" fill="none"/><path d="M217.38 159.45l-.86-9.45M216.52 150l-8.614-3.98" stroke-width="1.2" stroke="#00f" stroke-miterlimit="10" fill="none"/><path d="M207.906 146.02l-8.613-3.977" stroke-width="1.2" stroke="#000" stroke-miterlimit="10" fill="none"/><path d="M216.52 150l7.75-5.47" stroke-width="1.2" stroke="#00f" stroke-miterlimit="10" fill="none"/><path d="M224.27 144.53l7.753-5.468" stroke-width="1.2" stroke="#000" stroke-miterlimit="10" fill="none"/><path d="M213.52 144.5h7v11h-7zm0 0" fill="#fff"/><use xlink:href="#b" x="213.52" y="153.163" fill="#00f"/><path d="M234.246 138.86l-.86-9.446" stroke-width="1.2" stroke="#000" stroke-miterlimit="10" fill="none"/><path d="M233.387 129.414l-.86-9.45" stroke-width="1.2" stroke="#f00" stroke-miterlimit="10" fill="none"/><path d="M229.8 139.266l-.863-9.45" stroke-width="1.2" stroke="#000" stroke-miterlimit="10" fill="none"/><path d="M228.938 129.816l-.86-9.445" stroke-width="1.2" stroke="#f00" stroke-miterlimit="10" fill="none"/><path d="M232.023 139.063l8.61 3.98" stroke-width="1.2" stroke="#000" stroke-miterlimit="10" fill="none"/><path d="M240.633 143.043l8.613 3.977" stroke-width="1.2" stroke="#f00" stroke-miterlimit="10" fill="none"/><path d="M226.3 114.668h8v11h-8zm0 0" fill="#fff"/><use xlink:href="#a" x="226.301" y="123.331" fill="#f00"/><path d="M249.246 147.02l7.75-5.465" stroke-width="1.2" stroke="#f00" stroke-miterlimit="10" fill="none"/><path d="M256.996 141.555l7.754-5.47" stroke-width="1.2" stroke="#000" stroke-miterlimit="10" fill="none"/><path d="M245.246 141.52h8v11h-8zm0 0" fill="#fff"/><use xlink:href="#a" x="245.246" y="150.183" fill="#f00"/></g></svg>
